X: 21
T: HARVEST HOME
%R: hornpipe, reel
B: Jean White "100 Popular Hornpipes, Reels, Jigs and Country Dances", Boston 1880 p.9
F: http://www.loc.gov/resource/sm1880.09124.0#seq-1
Z: 2014 John Chambers <jc:trillian.mit.edu>
M: C|
L: 1/8
K: D
% - - - - - - - - - - - - - - - - - - - - - - - - - - - - -
AF |\
DAFA DAFA | defe dcBA | eAfA gAfA | edcB AGFE |
DAFA DAFA | defe dcBA | dAFA fgec | d2d2 d2 :|
|: cd |\
eAAA fAAA | eAAA fAAA | eAfA gAfA | edcB AGFE |
DAFA DAFA | defe dcBA | dAFA fgec | d2d2 d2 :|
% - - - - - - - - - - - - - - - - - - - - - - - - - - - - -

%%sep 1 1 500
%%sep 1 1 500
